X: 20752
T: INDIANIA QUICKSTEP
C:
%R: reel, quickstep
B: Elias Howe "The Musician's Companion" 1843 p.74 #2
S: http://imslp.org/wiki/The_Musician's_Companion_(Howe,_Elias)
Z: 2015 John Chambers <jc:trillian.mit.edu>
M: 2/4
L: 1/16
K: F
% - - - - - - - - - - - - - - - - - - - - - - - - -
AB |\
c3c =Bcdc | f3c A2AB | c3c (=Bcdc) | e3.d .c.B.A.G |\
A3B =Bcdc | a3g fedc | =Bcdc eBGE | F4 z2 :|
|: fg |\
aaaa a2gf | aggg g2ef | gggg g2ag | gfff f2fg |\
aaaa a2gf | aggg g2ef | gggg g2ag | f4 z2 :|
K: Dm
|: d2 |\
d^cde fefg | a2a2A3a | b3ba3a | gagf d3d |\
.d.^c.d.e .f.e.f.g | a2a2g2g2 | f2f2 cdef | d4 z2 :|
% - - - - - - - - - - - - - - - - - - - - - - - - -
